packages/tokens/icons/filterClear/size24Px.svg

<svg viewBox="0 0 24 24" fill="none" xmlns="http://www.w3.org/2000/svg" width="1em" height="1em"><path d="M17.5 4.00004L17.5 5.3613C17.5 5.49057 17.4499 5.61482 17.3603 5.70797L11.9191 11.363C11.6502 11.6425 11.5 12.0152 11.5 12.403L11.5 20C11.5 20.2761 11.2761 20.5 11 20.5L8.99998 20.5C8.72384 20.5 8.49998 20.2761 8.49998 20L8.49998 12.403C8.49998 12.0152 8.34978 11.6425 8.08088 11.363L2.63968 5.70794C2.55005 5.61478 2.49998 5.49053 2.49998 5.36126L2.49999 4C2.49999 3.72386 2.72385 3.5 2.99999 3.5L17 3.50004C17.2762 3.50004 17.5 3.7239 17.5 4.00004Z" stroke="currentColor" stroke-linejoin="round"/><path d="M3 5.5L17 5.5" stroke="currentColor"/><path d="M15.1213 15.1211L19.364 19.3638M15.1213 19.3638L19.364 15.1211" stroke="currentColor" stroke-linecap="round"/></svg>

<svg xmlns="http://www.w3.org/2000/svg" fill="none" viewBox="0 0 24 24" width="1em" height="1em"><path stroke="currentColor" stroke-linejoin="round" d="M17.5 4v1.361a.5.5 0 0 1-.14.347l-5.44 5.655a1.5 1.5 0 0 0-.42 1.04V20a.5.5 0 0 1-.5.5H9a.5.5 0 0 1-.5-.5v-7.597a1.5 1.5 0 0 0-.42-1.04L2.64 5.708a.5.5 0 0 1-.14-.347V4a.5.5 0 0 1 .5-.5h14a.5.5 0 0 1 .5.5Z"/><path stroke="currentColor" d="M3 5.5h14"/><path stroke="currentColor" stroke-linecap="round" d="m15.121 15.121 4.243 4.243m-4.243 0 4.243-4.243"/></svg>
